X: 990
T: Hayâl-i Yâre Değme
C: Rifat Bey (Sermüezzin, Miralay)
O: Turkey
F: http://compmusic.upf.edu/node/140
N: sabazemzeme--sarki--kapali_curcuna--hayal-i_yare--rifat_bey
N: makam= sabazemzeme
N: form= sarki
N: usul= kapali_curcuna = 10/8
M: 10/8
L: 1/16
K: C _1/4B _7/8d  
Q: 1/4=186
%%MIDI tuningsystem comma53
B8-B2c8-c2  | c2d2 e2f2 g2e2 d2c4B2  | \
w:  ARANAĞME  |   | 
c2d2 e2f2 g2_7/8a2 g2f2 e2d2  | 
w:   | 
c4 d2c2 B2A2 B2c4z2  | d14c4B2  | c8-c2d2 c2B2 A2G2  | \
w:   |   |   | 
_B8-_B2B2 A2B2 A2G2  | 
w:   | 
A2B2 c2c2 _B2B2 A2A4z2  | B8-B2c8-c2  | \
w:   |  ARANAĞME  | 
c2d2 e2f2 g2e2 d2c4B2  | 
w:   | 
c2d2 e2f2 g2_7/8a2 g2f2 e2d2  | c4 d2c2 B2A2 B2c4z2  | \
w:   |   | 
d14c4B2  | 
w:   | 
c8-c2d2 c2B2 A2G2  | _B8-_B2B2 A2B2 A2G2  | \
w:   |   | 
A2B2 c2c2 _B2B2 A2A4z2  | 
w:   | 
c4 c2c4d4e6  | f4 e2d2 c2c8-c2  | z4 f2g12f2  | \
w:  *  Ha yal_ i  yâ  |  re  değ *  *  me   |  gir  | 
g4 _7/8a4 g2g2 f2e4d2  | 
w:  ye  dur *  sun    | 
c4 c2c4d4e6  | f4 e2d2 c2c8-c2  | z4 f2g12f2  | \
w:  *  Ha yal_ i  yâ  |  re  değ *  *  me   |  gir  | 
_7/8a4 a4 g2f2 e2f4z2  | 
w:  ye  dur *  sun    | 
e2f2 _7/8a2g2 f2f2 e2f4z2  | z4 f2_7/8a4a4g4f2  | \
w:  SAZ  |  Ku rul sun   | 
f6_7/8a4g2 f2e2 d2c2  | 
w:  sahn_ ı  çeş  | 
c6c4d4e6  | f4 e2d2 c2c2 d2c4BA  | B4 c2d4d4c4B2  | \
w:  mim *  de   |  o tur *  *  sun    |  *  Ku rul sun   | 
e4 d2d2 c2c4B4A2  | 
w:  sahn_ *  ı  *  çeş  | 
A6_B4B2 A2G2 ^F2G2  | c4 c2_B2 A2A8z2  | \
w:  mim *  de   |  o tur *  *  sun    | 
a4 _b2a2 g2f2 g2a4z2  | 
w:  SAZ  | 
z4 g2a4a4a6  | a4 a6_b2 a2b4z2  | _b6b4b2 a2a4g2  | \
w:  Si pâh_ i  aşk_  |  ı  câ nân   |  cân_  | 
g4 a4 g2f2 g2a4z2  | 
w:  e lin *  den    | 
a4 _b2a2 g2f2 g2a4z2  | z4 g2a4a4a6  | \
w:  SAZ  |  Si pâh_ i  aşk_  | 
a4 a6_b2 a2b4z2  | _b6b2 a2=d'2 c'2b2 a2g2  | 
w:  ı  câ nân   |  cân_  | 
g4 _7/8a4 g2f2 e2f4z2  | e2f2 _7/8a2g2 f2f2 e2f4z2  | \
w:  e lin *  den    |  SAZ  | 
z4 g2_7/8a4a4g4f2  | 
w:  Da ğıl sın   | 
f6_7/8a4g2 f2e2 d2c2  | c8-c2d4e6  | \
w:  kol  kol_ ol  |  sun_ or  | 
f4 e2d2 c2c2 d2c4BA  | B4 c2d4d4c4B2  | 
w:  du  kur *  *  sun    |  *  Da ğıl sın   | 
e4 d2d2 c2c4B4A2  | A6_B4B2 A2G2 ^F2G2  | \
w:  kol  *  kol_ *  ol  |  sun_ *  or  | 
c4 c2_B2 A2A8z2  | |


